src/symbolic/status/weather-overcast-night-symbolic.svg

<?xml version="1.0" encoding="UTF-8" standalone="no"?>
<svg
   xmlns:dc="http://purl.org/dc/elements/1.1/"
   xmlns:cc="http://creativecommons.org/ns#"
   xmlns:rdf="http://www.w3.org/1999/02/22-rdf-syntax-ns#"
   xmlns:svg="http://www.w3.org/2000/svg"
   xmlns="http://www.w3.org/2000/svg"
   xmlns:sodipodi="http://sodipodi.sourceforge.net/DTD/sodipodi-0.dtd"
   xmlns:inkscape="http://www.inkscape.org/namespaces/inkscape"
   height="16"
   width="16"
   version="1.1"
   id="svg8"
   sodipodi:docname="weather-overcast-night-symbolic.svg"
   inkscape:version="0.92.3 (2405546, 2018-03-11)">
  <metadata
     id="metadata14">
    <rdf:RDF>
      <cc:Work
         rdf:about="">
        <dc:format>image/svg+xml</dc:format>
        <dc:type
           rdf:resource="http://purl.org/dc/dcmitype/StillImage" />
        <dc:title></dc:title>
      </cc:Work>
    </rdf:RDF>
  </metadata>
  <defs
     id="defs12" />
  <sodipodi:namedview
     pagecolor="#ffffff"
     bordercolor="#666666"
     borderopacity="1"
     objecttolerance="10"
     gridtolerance="10"
     guidetolerance="10"
     inkscape:pageopacity="0"
     inkscape:pageshadow="2"
     inkscape:window-width="3200"
     inkscape:window-height="1674"
     id="namedview10"
     showgrid="false"
     inkscape:zoom="5.6568542"
     inkscape:cx="8"
     inkscape:cy="8"
     inkscape:window-x="0"
     inkscape:window-y="60"
     inkscape:window-maximized="1"
     inkscape:current-layer="svg8"
     showborder="true"
     inkscape:showpageshadow="false">
    <inkscape:grid
       type="xygrid"
       id="grid972" />
  </sodipodi:namedview>
  <path
     style="opacity:0.6;vector-effect:none;fill:#555761;fill-opacity:1;stroke:none;stroke-width:1.00000012;stroke-linecap:butt;stroke-linejoin:miter;stroke-miterlimit:4;stroke-dasharray:none;stroke-dashoffset:0;stroke-opacity:1;marker:none;paint-order:normal;font-variant-east_asian:normal"
     d="M 6 3 A 2.5 2.5 0 0 0 3.5 5.5 A 2.5 2.5 0 0 0 3.5644531 6.0488281 A 2 2 0 0 0 2 8 A 2 2 0 0 0 3.2988281 9.8710938 C 3.5724783 9.3644757 4.0084172 8.9341871 4.5117188 8.6074219 C 4.5105099 8.5733443 4.5002099 8.5399579 4.5 8.5058594 A 1.0001 1.0001 0 0 1 4.5 8.5 C 4.5 7.5837021 4.8774702 6.6733111 5.5253906 6.0253906 C 6.1733111 5.3774702 7.0837021 5 8 5 A 1.0001 1.0001 0 0 0 8.0019531 5 C 8.9436313 5.0012254 9.7866497 5.4961221 10.441406 6.1699219 C 10.504264 6.1547229 10.563301 6.1282125 10.623047 6.1035156 A 2 2 0 0 0 10.398438 6.0429688 A 1.5 1.5 0 0 0 10.5 5.5 A 1.5 1.5 0 0 0 9 4 A 1.5 1.5 0 0 0 8.1640625 4.2539062 A 2.5 2.5 0 0 0 6 3 z M 8 6 A 2.5 2.5 0 0 0 5.5 8.5 A 2.5 2.5 0 0 0 5.5644531 9.0488281 A 2 2 0 0 0 4 11 A 2 2 0 0 0 6 13 L 12 13 A 2 2 0 0 0 14 11 A 2 2 0 0 0 12.398438 9.0429688 A 1.5 1.5 0 0 0 12.5 8.5 A 1.5 1.5 0 0 0 11 7 A 1.5 1.5 0 0 0 10.164062 7.2539062 A 2.5 2.5 0 0 0 8 6 z "
     id="path859-6-0-2" />
  <path
     inkscape:connector-curvature="0"
     id="path859-6-9"
     d="M 53,4 A 2.5,2.5 0 0 0 50.835937,5.253906 1.5,1.5 0 0 0 50,5 1.5,1.5 0 0 0 48.5,6.5 1.5,1.5 0 0 0 48.601562,7.042969 2,2 0 0 0 47,9 a 2,2 0 0 0 2,2 h 6 A 2,2 0 0 0 57,9 2,2 0 0 0 55.435547,7.048828 2.5,2.5 0 0 0 55.5,6.5 2.5,2.5 0 0 0 53,4 Z"
     style="opacity:0.6;vector-effect:none;fill:#fafafa;fill-opacity:1;stroke:none;stroke-width:1.00000012;stroke-linecap:butt;stroke-linejoin:miter;stroke-miterlimit:4;stroke-dasharray:none;stroke-dashoffset:0;stroke-opacity:1;marker:none;paint-order:normal" />
  <path
     inkscape:connector-curvature="0"
     id="path975-1"
     d="M 11.488281,3 11.671875,3.8164062 12.5,4.0117188 11.669922,4.1796875 11.509766,5 11.320313,4.1699219 10.5,3.9882812 11.316406,3.8261719 Z M 13.984375,4.5 14.261719,5.7246094 15.5,6.015625 14.255859,6.2695312 14.015625,7.5 13.730469,6.2558594 12.5,5.984375 13.724609,5.7382812 Z"
     style="opacity:1;vector-effect:none;fill:#555761;fill-opacity:1;stroke:none;stroke-width:0.99999994;stroke-linecap:butt;stroke-linejoin:miter;stroke-miterlimit:4;stroke-dasharray:none;stroke-dashoffset:0;stroke-opacity:1;marker:none;paint-order:normal"
     sodipodi:nodetypes="cccccccccccccccccc" />
</svg>

<svg xmlns="http://www.w3.org/2000/svg" height="16" width="16"><path style="marker:none;font-variant-east_asian:normal" d="M6 3a2.5 2.5 0 0 0-2.5 2.5 2.5 2.5 0 0 0 .064.549A2 2 0 0 0 2 8a2 2 0 0 0 1.299 1.871c.273-.507.71-.937 1.213-1.264-.001-.034-.012-.067-.012-.101a1 1 0 0 1 0-.006c0-.916.377-1.827 1.025-2.475A3.542 3.542 0 0 1 8 5a1 1 0 0 0 .002 0c.942.001 1.785.496 2.44 1.17.062-.015.121-.042.181-.066a2 2 0 0 0-.225-.061A1.5 1.5 0 0 0 10.5 5.5 1.5 1.5 0 0 0 9 4a1.5 1.5 0 0 0-.836.254A2.5 2.5 0 0 0 6 3zm2 3a2.5 2.5 0 0 0-2.5 2.5 2.5 2.5 0 0 0 .064.549A2 2 0 0 0 4 11a2 2 0 0 0 2 2h6a2 2 0 0 0 2-2 2 2 0 0 0-1.602-1.957A1.5 1.5 0 0 0 12.5 8.5 1.5 1.5 0 0 0 11 7a1.5 1.5 0 0 0-.836.254A2.5 2.5 0 0 0 8 6z" opacity=".6" fill="#555761"/><path d="M53 4a2.5 2.5 0 0 0-2.164 1.254A1.5 1.5 0 0 0 50 5a1.5 1.5 0 0 0-1.5 1.5 1.5 1.5 0 0 0 .102.543A2 2 0 0 0 47 9a2 2 0 0 0 2 2h6a2 2 0 0 0 2-2 2 2 0 0 0-1.564-1.951A2.5 2.5 0 0 0 55.5 6.5 2.5 2.5 0 0 0 53 4z" style="marker:none" opacity=".6" fill="#fafafa"/><path d="M11.488 3l.184.816.828.196-.83.168-.16.82-.19-.83-.82-.182.816-.162zm2.496 1.5l.278 1.225 1.238.29-1.244.255-.24 1.23-.286-1.244-1.23-.272 1.225-.246z" style="marker:none" fill="#555761"/></svg>
